packages/foundations/assets/icons/functional/images/business & payment/discount_14_filled.svg

<svg width="14" height="14" viewBox="0 0 14 14" fill="none" xmlns="http://www.w3.org/2000/svg">
<g clip-path="url(#clip0_2202_1445)">
<path fill-rule="evenodd" clip-rule="evenodd" d="M7.02802 1.201C7.45502 1.187 7.86702 1.4 8.13702 1.727L8.54902 2.239L9.21702 2.082C9.33102 2.054 9.44502 2.04 9.55802 2.04C10.326 2.04 10.98 2.637 11.008 3.404L11.051 4.058L11.676 4.314C12.23 4.555 12.6 5.081 12.6 5.678C12.6 5.948 12.515 6.218 12.358 6.46L12.003 7L12.358 7.583C12.5 7.824 12.586 8.094 12.586 8.379C12.586 8.961 12.216 9.502 11.662 9.715L11.051 9.942L10.994 10.624C10.937 11.335 10.354 11.974 9.54402 11.974C9.41945 11.9749 9.29522 11.9608 9.17402 11.932L8.54902 11.762L8.09402 12.273C7.79602 12.643 7.46902 12.785 6.97202 12.799C6.54502 12.813 6.13302 12.6 5.86302 12.273L5.45102 11.761L4.78302 11.918C4.67151 11.9459 4.55698 11.96 4.44202 11.96C3.67402 11.96 3.02002 11.363 2.99202 10.596L2.94902 9.942L2.32402 9.686C1.75502 9.445 1.40002 8.933 1.40002 8.336C1.40002 8.052 1.48502 7.782 1.64202 7.54L1.99702 7L1.64202 6.403C1.49433 6.16881 1.41533 5.89787 1.41402 5.621C1.41402 5.039 1.78402 4.498 2.33802 4.285L2.94902 4.058L3.02002 3.376C3.04902 2.608 3.70302 2.026 4.45602 2.026C4.58402 2.026 4.71202 2.04 4.82602 2.068L5.45102 2.238L5.89102 1.713C6.20402 1.372 6.53102 1.215 7.02802 1.201ZM8.39502 4.605L4.62002 8.41L5.60002 9.39L9.39002 5.6L8.39502 4.605ZM8.67702 7.981C8.4926 7.98153 8.31587 8.05502 8.18546 8.18544C8.05505 8.31585 7.98155 8.49257 7.98102 8.677C7.97944 8.81691 8.01959 8.95411 8.09633 9.0711C8.17308 9.18809 8.28294 9.27956 8.4119 9.33383C8.54086 9.38811 8.68307 9.40272 8.82037 9.37581C8.95768 9.3489 9.08385 9.28169 9.18278 9.18276C9.28172 9.08382 9.34893 8.95765 9.37584 8.82035C9.40275 8.68304 9.38813 8.54084 9.33386 8.41187C9.27958 8.28291 9.18812 8.17305 9.07113 8.09631C8.95414 8.01956 8.81693 7.97942 8.67702 7.981ZM5.32302 4.612C5.13631 4.61014 4.95651 4.68253 4.82317 4.81325C4.68983 4.94396 4.61388 5.12229 4.61202 5.309C4.61017 5.49571 4.68256 5.67551 4.81327 5.80885C4.94398 5.94219 5.12231 6.01814 5.30902 6.02C5.40147 6.02092 5.4932 6.00362 5.57897 5.96909C5.66473 5.93456 5.74286 5.88347 5.80888 5.81875C5.8749 5.75403 5.92753 5.67694 5.96376 5.59188C5.99999 5.50681 6.0191 5.41545 6.02002 5.323C6.02094 5.23055 6.00364 5.13882 5.96911 5.05306C5.93458 4.96729 5.8835 4.88917 5.81878 4.82315C5.75405 4.75712 5.67696 4.7045 5.5919 4.66827C5.50684 4.63204 5.41547 4.61292 5.32302 4.612Z" fill="#1A1C1F"/>
</g>
<defs>
<clipPath id="clip0_2202_1445">
<rect width="14" height="14" fill="white"/>
</clipPath>
</defs>
</svg>

<svg xmlns="http://www.w3.org/2000/svg" width="14" height="14" fill="none"><g clip-path="url(#a)"><path fill="#1A1C1F" fill-rule="evenodd" d="M7.028 1.201c.427-.014.839.199 1.109.526l.412.512.668-.157q.171-.042.341-.042c.768 0 1.422.597 1.45 1.364l.043.654.625.256c.554.241.924.767.924 1.364 0 .27-.085.54-.242.782l-.355.54.355.583c.142.241.228.511.228.796 0 .582-.37 1.123-.924 1.336l-.611.227-.057.682c-.057.711-.64 1.35-1.45 1.35q-.188 0-.37-.042l-.625-.17-.455.511c-.298.37-.625.512-1.122.526-.427.014-.839-.199-1.109-.526l-.412-.512-.668.157a1.4 1.4 0 0 1-.341.042c-.768 0-1.422-.597-1.45-1.364l-.043-.654-.625-.256c-.569-.241-.924-.753-.924-1.35 0-.284.085-.554.242-.796L1.997 7l-.355-.597a1.5 1.5 0 0 1-.228-.782c0-.582.37-1.123.924-1.336l.611-.227.071-.682c.029-.768.683-1.35 1.436-1.35.128 0 .256.014.37.042l.625.17.44-.525c.313-.341.64-.498 1.137-.512m1.367 3.404L4.62 8.41l.98.98L9.39 5.6zm.282 3.376a.7.7 0 0 0-.696.696.704.704 0 1 0 .696-.696M5.323 4.612a.704.704 0 1 0-.014 1.408.704.704 0 0 0 .014-1.408" clip-rule="evenodd"/></g><defs><clipPath id="a"><path fill="#fff" d="M0 0h14v14H0z"/></clipPath></defs></svg>
